assets/symbols/mulberry/lens.svg

<svg height="850.394" viewBox="0 0 850.394 850.394" width="850.394" xmlns="http://www.w3.org/2000/svg"><g fill="none"><g stroke="#231f20"><path d="m532.701 606s-35.641-80.19-40.588-187.112c-3.399-73.427 40.095-182.657 40.095-182.657h-139.846s43.495 109.23 40.095 182.657c-4.948 106.922-40.588 187.112-40.588 187.112z" stroke-width="14"/><path d="m87.934 275.338h375.215l266.311-143.057m-641.526 221.267h336.605" stroke-width="7"/><path d="m87.934 572.338h375.215l275.221 129.817m-650.436-208.024h336.605" stroke-width="7"/><path d="m87.934 423.839h673.517" stroke-width="7"/><path d="m170.973 423.596 290.691-146.28" stroke-dasharray="23.76" stroke-width="7"/><path d="m171.094 696.093v-274.235" stroke-width="7"/><path d="m174.064 424.829 300.965 152.463" stroke-dasharray="23.76" stroke-width="7"/><path d="m429.136 356.68 332.315-83.323" stroke-width="7"/><path d="m180.997 418.888 248.139-62.208m-2.187 131.796-255.855-63.647" stroke-dasharray="23.76" stroke-width="7"/><path d="m761.451 572.344-334.502-83.868" stroke-width="7"/><path d="m113.115 262.663 26.301 12.988-26.301 12.985zm0 77.221 26.301 12.988-26.301 12.985zm0 71.281 26.301 12.988-26.301 12.985zm0 71.277 26.301 12.995-26.301 12.982zm0 77.221 26.301 12.994-26.301 12.983zm593.014-147.823 26.301 12.989-26.301 12.984z" stroke-width="5.94"/><path d="m691.963 278.166 28.836 5.345-21.776 19.651zm-31.922-124.051 29.283 1.766-19.201 22.174z" stroke-width="5.94"/><path d="m690.107 566.067 28.836-5.342-21.776-19.648zm-25.24 116.632 29.283-1.769-19.201-22.177z" stroke-width="5.94"/></g><path d="m0 0h850.394v850.394h-850.394z"/></g></svg>

<svg xmlns="http://www.w3.org/2000/svg" width="850.394" height="850.394" viewBox="0 0 850.394 850.394" overflow="visible"><path d="M532.701 606s-35.641-80.19-40.588-187.112c-3.399-73.427 40.095-182.657 40.095-182.657H392.362s43.495 109.23 40.095 182.657C427.509 525.81 391.869 606 391.869 606h140.832z" fill="none" stroke="#231f20" stroke-width="14"/><path fill="none" stroke="#231f20" stroke-width="7" d="M87.934 275.338h375.215L729.46 132.281M87.934 353.548h336.605"/><g fill="none" stroke="#231f20" stroke-width="7"><path d="M87.934 572.338h375.215L738.37 702.155M87.934 494.131h336.605"/></g><path fill="none" stroke="#231f20" stroke-width="7" d="M87.934 423.839h673.517"/><path fill="none" stroke="#231f20" stroke-width="7" stroke-dasharray="23.76" d="M170.973 423.596l290.691-146.28"/><path fill="none" stroke="#231f20" stroke-width="7" d="M171.094 696.093V421.858"/><path fill="none" stroke="#231f20" stroke-width="7" stroke-dasharray="23.76" d="M174.064 424.829l300.965 152.463"/><path fill="none" stroke="#231f20" stroke-width="7" d="M429.136 356.68l332.315-83.323"/><path fill="none" stroke="#231f20" stroke-width="7" stroke-dasharray="23.76" d="M180.997 418.888l248.139-62.208M426.949 488.476l-255.855-63.647"/><path fill="none" stroke="#231f20" stroke-width="7" d="M761.451 572.344l-334.502-83.868"/><path fill="none" stroke="#231f20" stroke-width="5.94" d="M113.115 262.663l26.301 12.988-26.301 12.985zM113.115 339.884l26.301 12.988-26.301 12.985zM113.115 411.165l26.301 12.988-26.301 12.985zM113.115 482.442l26.301 12.995-26.301 12.982zM113.115 559.663l26.301 12.994-26.301 12.983zM706.129 411.84l26.301 12.989-26.301 12.984z"/><g fill="none" stroke="#231f20" stroke-width="5.94"><path d="M691.963 278.166l28.836 5.345-21.776 19.651zM660.041 154.115l29.283 1.766-19.201 22.174z"/></g><path fill="none" stroke="#231f20" stroke-width="5.94" d="M690.107 566.067l28.836-5.342-21.776-19.648zM664.867 682.699l29.283-1.769-19.201-22.177z"/><path fill="none" d="M0 0h850.394v850.394H0z"/></svg>
